Obsidian-SemiLight/actions/22s/newline.svg

<svg viewBox="0 0 22 22" xmlns="http://www.w3.org/2000/svg"><path d="m11 5v1 1h-2l3 4 3-4h-2v-1-1zm-7 7v1h16v-1z" fill="#4d4d4d"/></svg>

<svg xmlns="http://www.w3.org/2000/svg" viewBox="0 0 22 22">
  <defs id="defs3051">
    <style type="text/css" id="current-color-scheme">
      .ColorScheme-Text {
        color:#4d4d4d;
      }
      </style>
  </defs>
 <path 
     style="fill:currentColor;fill-opacity:1;stroke:none" 
    d="M 11 5 L 11 6 L 11 7 L 9 7 L 12 11 L 15 7 L 13 7 L 13 6 L 13 5 L 11 5 z M 4 12 L 4 13 L 20 13 L 20 12 L 4 12 z "
     class="ColorScheme-Text"
     />
</svg>
